X: 11442
T: Easy Club, The
R: reel
M: 4/4
K: Amajor
|:AEAc BFBd|cee^d eAce|fefg aefg|afec AB B2|
AEAc BFBd|cee^d eAce|fefg aece|1 dBGB A2 E2:|2 dBGB Af f/f/f||
|:f2 af dfaf|e2 ae ceae|f2 af defg|afec AB B2|
ABBA BcdB|cdec defg|agaf eAce|1 dBGB Af f/f/f:|2 dBGB A2 E2||

